X:2420
T:H.M.S. Invincible and H.M.S. Berwick
O:england
C:Muriel Johnstone
M:4/4
L:1/8
Q:212
K:D
|:z6Az|d3d A2d2|Bcd2 A4|Bcd2 A2d2|F2E2 E2A2|
W:
d3d A2d2|Bcd2 A4|GAB2 A2f2|e2d2 d2z2:|
W:
|:z6ez|f3f F2f2|e2dc d4|e3e B2d2|d2cB cABc|
W:
d3d c2e2|edcB A4|GAB2 A2f2|e2d2 d2z2:|
W:
K:G
z6dz|g3g d2g2|fgaf g2ab|c'2b2 a2g2|fgfe d2gf|
W:
